static/images/slide-profits/1.svg

<svg width="70" height="100" viewBox="0 0 70 100" version="1.1" xmlns="http://www.w3.org/2000/svg" xmlns:xlink="http://www.w3.org/1999/xlink">
<title>Shape</title>
<desc>Created using Figma</desc>
<g id="Canvas" transform="translate(-9956 -1307)">
<g id="Shape">
<use xlink:href="#path0_fill" transform="translate(9956.08 1307)" fill="#F4511E"/>
</g>
</g>
<defs>
<path id="path0_fill" fill-rule="evenodd" d="M 67.3975 66.4373L 42.8896 66.4373C 41.5361 66.4373 40.4385 67.5332 40.4385 68.8854C 40.4385 70.2373 41.5361 71.3334 42.8896 71.3334L 45.0762 71.3334C 41.7881 73.6289 37.8369 74.9197 33.8018 74.9197C 22.9561 74.9197 14.1318 66.1045 14.1318 55.2693C 14.1318 50.0164 16.2568 44.9768 19.9902 41.2972C 22.4629 41.2039 24.6797 40.0961 26.2324 38.377L 34.3555 46.4908C 35.4473 47.5814 36.8818 48.1272 38.3174 48.1267C 39.5107 48.1267 40.7012 47.7441 41.6982 46.9906L 49.7002 54.9828C 50.1787 55.4609 50.8057 55.6998 51.4326 55.6998C 52.0596 55.6998 52.6875 55.4606 53.166 54.9828L 59.5625 48.5934C 60.0225 48.1342 60.2803 47.5115 60.2803 46.8623C 60.2803 46.3912 60.1445 45.934 59.8945 45.5432C 59.7998 45.3955 59.6885 45.2572 59.5625 45.1312L 51.5625 37.14C 52.2988 36.1721 52.7031 34.9998 52.7031 33.7627C 52.7031 32.2662 52.1201 30.8594 51.0605 29.8015L 27.2588 6.02869C 26.1992 4.97095 24.791 4.38831 23.2939 4.38831C 22.3496 4.38831 21.4424 4.62085 20.6338 5.05737L 16.2891 0.716797C 15.8291 0.258057 15.2051 0 14.5557 0C 13.9053 0 13.2822 0.258057 12.8223 0.717041L 5.23535 8.29553C 4.27832 9.25159 4.27832 10.8015 5.23535 11.7576L 9.58008 16.0974C 9.14355 16.9033 8.91113 17.8093 8.91113 18.752C 8.91016 20.2494 9.49316 21.657 10.5527 22.7158L 13.7168 25.876C 12.4248 27.041 11.4775 28.5801 11.0459 30.3201C 4.01562 36.7136 0 45.7571 0 55.2693C 0 67.5193 6.56543 78.2659 16.3662 84.1842C 9.44824 84.7184 3.98242 90.5074 3.98242 97.552C 3.98242 98.9041 5.0791 100 6.43262 100L 60.2891 100C 61.6426 100 62.7402 98.9041 62.7402 97.552C 62.7402 90.7439 57.6348 85.1082 51.0479 84.2555C 56.2178 81.1803 60.5762 76.7478 63.5205 71.3334L 67.3965 71.3334C 68.75 71.3334 69.8477 70.2375 69.8477 68.8854C 69.8477 67.5332 68.751 66.4373 67.3975 66.4373ZM 19.6514 36.4098C 17.4648 36.4098 15.6865 34.6333 15.6865 32.4497C 15.6865 30.2661 17.4648 28.4895 19.6514 28.4895C 21.8369 28.4895 23.6152 30.2661 23.6152 32.4497C 23.6152 34.6333 21.8369 36.4098 19.6514 36.4098ZM 51.4326 49.7899L 54.3633 46.8625L 48.1377 40.6438L 45.207 43.5712L 51.4326 49.7899ZM 22.7959 9.49133C 23.0703 9.2168 23.5176 9.2168 23.793 9.49133L 47.5947 33.2644C 47.7656 33.4351 47.8018 33.6302 47.8018 33.7637C 47.8018 33.897 47.7656 34.0922 47.5928 34.2648L 46.4688 35.3896L 46.4424 35.4154L 46.4277 35.4287L 46.4043 35.45L 40.0068 41.8394L 39.9854 41.8636L 38.8193 43.0275C 38.543 43.3027 38.0957 43.3037 37.8213 43.0293L 28.4336 33.6519L 28.4658 33.3845C 28.499 33.0773 28.5176 32.7657 28.5176 32.45C 28.5176 27.5665 24.54 23.5938 19.6514 23.5938C 19.2432 23.5938 18.8418 23.6238 18.4473 23.6775L 14.0195 19.2539C 13.8486 19.083 13.8125 18.8881 13.8125 18.7546C 13.8125 18.6636 13.8291 18.5436 13.8955 18.4221L 13.918 18.384L 13.9395 18.3533C 13.9619 18.321 13.9883 18.2892 14.0195 18.2579L 22.7959 9.49133ZM 10.4346 10.0261L 12.8809 12.4695L 17.002 8.35352L 14.5557 5.91016L 10.4346 10.0261ZM 57.4805 95.1039L 9.24316 95.1039C 10.2988 91.5977 13.5605 89.0358 17.4102 89.0358L 49.3135 89.0358C 53.1631 89.036 56.4248 91.5977 57.4805 95.1039ZM 4.90234 55.2693C 4.90234 71.187 17.8672 84.1367 33.8018 84.1367C 43.4424 84.1367 52.4775 79.2189 57.7988 71.3331L 52.3584 71.3331C 47.7061 76.6644 40.8584 79.8156 33.8018 79.8156C 20.2529 79.8156 9.23047 68.8041 9.23047 55.269C 9.23047 49.6123 11.2002 44.1541 14.7295 39.8115C 13.5049 38.9917 12.4951 37.8745 11.8047 36.5652C 7.37891 41.7511 4.90234 48.3654 4.90234 55.2693Z"/>
</defs>
</svg>

<svg xmlns="http://www.w3.org/2000/svg" xmlns:xlink="http://www.w3.org/1999/xlink" width="70" height="100"><use xlink:href="#A" fill="#F4511E" x="9956.08" y="1307" transform="translate(-9956 -1307)"/><defs><path id="A" d="M67.398 66.437H42.9a2.45 2.45 0 0 0-2.451 2.448 2.45 2.45 0 0 0 2.451 2.448h2.187c-3.288 2.296-7.24 3.586-11.274 3.586-10.846 0-19.67-8.815-19.67-19.65 0-5.253 2.125-10.293 5.858-13.972 2.473-.093 4.69-1.2 6.242-2.92l8.123 8.114c1.092 1.09 2.526 1.636 3.962 1.636 1.193 0 2.384-.383 3.38-1.136l8.002 7.992c.478.478 1.105.717 1.732.717s1.255-.24 1.733-.717l6.397-6.39c.46-.46.718-1.082.718-1.73a2.45 2.45 0 0 0-.386-1.319c-.095-.148-.206-.286-.332-.412l-8-7.99a5.55 5.55 0 0 0 1.141-3.377 5.56 5.56 0 0 0-1.643-3.961L27.26 6.03c-1.06-1.058-2.468-1.64-3.965-1.64a5.58 5.58 0 0 0-2.66.669L16.29.717C15.83.258 15.205 0 14.556 0s-1.274.258-1.733.717L5.235 8.296c-.957.956-.957 2.506 0 3.462l4.345 4.34c-.437.806-.67 1.712-.67 2.655a5.56 5.56 0 0 0 1.642 3.964l3.164 3.16c-1.292 1.165-2.24 2.704-2.67 4.444C4.016 36.714 0 45.757 0 55.27c0 12.25 6.565 22.997 16.366 28.915-6.918.534-12.384 6.323-12.384 13.368A2.45 2.45 0 0 0 6.433 100H60.29a2.45 2.45 0 0 0 2.451-2.448c0-6.808-5.105-12.444-11.692-13.297 5.17-3.075 9.528-7.508 12.473-12.922h3.876a2.45 2.45 0 0 0 2.451-2.448 2.45 2.45 0 0 0-2.45-2.448zM19.65 36.4a3.97 3.97 0 0 1-3.965-3.96 3.97 3.97 0 0 1 3.965-3.96 3.97 3.97 0 0 1 3.964 3.96 3.97 3.97 0 0 1-3.964 3.96zm31.78 13.38l2.93-2.927-6.226-6.22-2.93 2.927 6.226 6.22zM22.796 9.49c.274-.275.722-.275.997 0l23.802 23.773c.17.17.207.366.207.5s-.036.328-.21.5l-1.15 1.15-.015.013-.023.02-7.585 7.578c-.276.275-.724.276-.998.002l-9.388-9.377.032-.267a8.69 8.69 0 0 0 .052-.934c0-4.884-3.978-8.856-8.866-8.856-.408 0-.8.03-1.204.084l-4.428-4.424c-.17-.17-.207-.366-.207-.5a.69.69 0 0 1 .083-.332l.022-.038.022-.03a.7.7 0 0 1 .08-.095l8.776-8.767zm-12.36.535l2.446 2.443 4.12-4.116L14.556 5.9l-4.12 4.116zM57.48 95.104H9.243c1.056-3.506 4.317-6.068 8.167-6.068h31.903c3.85 0 7.11 2.562 8.167 6.068zM4.902 55.27c0 15.918 12.965 28.867 28.9 28.867 9.64 0 18.676-4.918 23.997-12.804h-5.44c-4.652 5.33-11.5 8.483-18.557 8.483-13.55 0-24.57-11.01-24.57-24.547 0-5.657 1.97-11.115 5.5-15.457a8.92 8.92 0 0 1-2.925-3.246C7.38 41.75 4.902 48.365 4.902 55.27z" fill-rule="evenodd"/></defs></svg>
